img/wlm-logo-compact-light.svg

<?xml version="1.0" encoding="UTF-8"?>
<svg xmlns="http://www.w3.org/2000/svg" width="99" height="28" viewBox="0 0 99 28">
	<title>
		Wiki Loves Monuments (compact light)
	</title>
	<path fill="#fff" fill-rule="nonzero" d="M21.8301696 10.696018l2.9127176-5.80984975c.4873553-1.06292111.3875739-1.32901446.1865587-1.57485157-.1156903-.13738934-.5032641-.36013206-1.3463661-.39335457l-.331162-.03616508c-.0838821 0-.162012-.02895105-.2386136-.0853344-.0752158-.05350723-.1128047-.12295178-.1128047-.21113382v-.71728357l.1026766-.07375398c2.0622068-.01442806 6.6942131 0 6.6942131 0h-.0000285l.0823919.0751778v.71728357c0 .19812958-.1113524.29646822-.3311715.29646822-1.0788205.05061213-1.3000824.15762659-1.6948798.72595939-.2154717.30947247-.640644.9761534-1.0817156 1.72525464l-3.7860092 7.08032522s-.0373972.0781359-.1068112.2228796l4.6275221 9.4677955.2805594.0766965 7.2885734-17.2973588c.2530796-.69703681.2140289-1.19161563-.1113524-1.48229365-.3268336-.28200219-.5567713-.4511997-1.4013161-.48590299l-.6840231-.03322252c-.0839106 0-.1634168-.03037487-.2400659-.08818204-.0751778-.05353571-.1142475-.12436611-.1142475-.20969102v-.72017867l.1041289-.07375398h8.2343519l.0839106.07375398v.72017867c0 .19523448-.1113524.29356363-.331162.29356363-1.07883.0477455-1.8785433.28200219-2.396264.69994141-.5191635.42082484-.924089.99928576-1.214767 1.75417722 0 0-6.7028795 15.34071416-8.9964669 20.44127176-.8778148 1.6717474-1.7411635 1.5184492-2.5003929-.0477455-.9506916-1.9579606-2.9248295-6.2763516-4.3749824-9.4687091-1.5507739 3.199245-3.6741186 7.5350195-4.7271606 9.4873612-1.0238704 1.7802521-1.8669724 1.5474192-2.5379912.0463216-2.329743-5.4967978-7.1135857-15.1483842-9.36523683-20.556962-.41649642-.99640015-.7303068-1.63559182-1.02676553-1.88867144-.29791103-.25018452-.91685595-.40060657-1.85829657-.45119971C1.17209262 2.85723136 1 2.77335875 1 2.63742171v-.75344865l.08391058-.07375398c1.53291527-.00854293 8.95164502 0 8.95164502 0l.0839106.07375398v.71729306c0 .19812009-.12581844.29356363-.37310785.29356363l-.9342076.03901272c-.80116567.03326048-1.20175325.27331688-1.20175325.71728357 0 .2068054.0838821.54375763.27043126.99494785C9.67404718 9.01633423 15.8678913 22.0764746 15.8678913 22.0764746l.2270427.059326 3.9924691-7.9635751c-.4880925-1.0783118-.7993394-1.768875-.7993394-1.768875l-2.7447872-5.39413072-.0000379-.00013289s-.5307344-1.07882046-.7115029-1.43746224c-1.2060817-2.38904047-1.1800542-2.51630168-2.3991496-2.67826618-.3412901-.04480294-.5177207-.08818205-.5177207-.25741753v-.75633426l.1026766-.07375398c2.2024818-.00284765 7.1034671-.00284765 7.1034671-.00284765l.1880014.06217356v.75343916c0 .17209262-.1229233.26030314-.3731078.26030314l-.5148256.07375398c-1.3015347.10123375-1.0889485.63342045-.224157 2.35577999l2.6332495 5.38756312zm27.4930627 1.0716588s1.0505051-2.10101013 3.1515152-2.10101013c2.6262626 0 4.2020202 2.10101013 4.2020202 4.20202023 0 4.2020202-5.2525253 5.2525252-7.3535354 8.4040404-2.1010101-3.1515152-7.3535353-4.2020202-7.3535353-8.4040404 0-2.1010101 1.5757575-4.20202023 4.2020202-4.20202023 2.1010101 0 3.1515151 2.10101013 3.1515151 2.10101013zm13.1313132 15.1369899v-1.891697l2.4707878-.2702424.5404849-.6949091V3.58660606l-.4632727-.50187879-2.548-.23163636V1h10.1147878v1.0809697l6.0225455 17.7201818 5.9839394-17.68157574V1h13.3821212v1.85309091l-2.6252121.23163636-.4246667.54048485V24.2022424l.4246667.617697 2.6252121.1930303v1.891697H84.1125455v-1.891697l2.3935757-.1930303.3860606-.617697V3.47078788L78.8621212 26.9046667h-2.7796364L68.2454545 3.66381818V24.0478182l.579091.6949091 2.3935757.2702424v1.891697h-8.7635757zM92.3939394 3.36363636V24.6968803h.7878788V3.36363636h-.7878788zm-3.1515152 0V24.6968803h.7878788V3.36363636h-.7878788z"/>
</svg>

<?xml version="1.0" encoding="UTF-8"?>
<svg width="99px" height="28px" viewBox="0 0 99 28" version="1.1" xmlns="http://www.w3.org/2000/svg" xmlns:xlink="http://www.w3.org/1999/xlink">
    <!-- Generator: Sketch 48.2 (47327) - http://www.bohemiancoding.com/sketch -->
    <title>wlm-compact-light</title>
    <desc>Created with Sketch.</desc>
    <defs></defs>
    <g id="Wiki-Loves-Monuments" stroke="none" stroke-width="1" fill="none" fill-rule="evenodd">
        <g id="wlm-compact-light" fill="#FFFFFF" fill-rule="nonzero">
            <path d="M21.8301696,10.696018 L24.7428872,4.88616825 C25.2302425,3.82324714 25.1304611,3.55715379 24.9294459,3.31131668 C24.8137556,3.17392734 24.4261818,2.95118462 23.5830798,2.91796211 L23.2519178,2.88179703 C23.1680357,2.88179703 23.0899058,2.85284598 23.0133042,2.79646263 C22.9380884,2.7429554 22.9004995,2.67351085 22.9004995,2.58532881 L22.9004995,1.86804524 L23.0031761,1.79429126 C25.0653829,1.7798632 29.6973892,1.79429126 29.6973892,1.79429126 L29.6973607,1.79429126 L29.7797526,1.86946906 L29.7797526,2.58675263 C29.7797526,2.78488221 29.6684002,2.88322085 29.4485811,2.88322085 C28.3697606,2.93383298 28.1484987,3.04084744 27.7537013,3.60918024 C27.5382296,3.91865271 27.1130573,4.58533364 26.6719857,5.33443488 L22.8859765,12.4147601 C22.8859765,12.4147601 22.8485793,12.492896 22.7791653,12.6376397 L27.4066874,22.1054352 L27.6872468,22.1821317 L34.9758202,4.8847729 C35.2288998,4.18773609 35.1898491,3.69315727 34.8644678,3.40247925 C34.5376342,3.12047706 34.3076965,2.95127955 33.4631517,2.91657626 L32.7791286,2.88335374 C32.695218,2.88335374 32.6157118,2.85297887 32.5390627,2.7951717 C32.4638849,2.74163599 32.4248152,2.67080559 32.4248152,2.58548068 L32.4248152,1.86530201 L32.5289441,1.79154803 C34.5824656,1.79154803 40.763296,1.79154803 40.763296,1.79154803 L40.8472066,1.86530201 L40.8472066,2.58548068 C40.8472066,2.78071516 40.7358542,2.87904431 40.5160446,2.87904431 C39.4372146,2.92678981 38.6375013,3.1610465 38.1197806,3.57898572 C37.6006171,3.99981056 37.1956916,4.57827148 36.9050136,5.33316294 C36.9050136,5.33316294 30.2021341,20.6738771 27.9085467,25.7744347 C27.0307319,27.4461821 26.1673832,27.2928839 25.4081538,25.7266892 C24.4574622,23.7687286 22.4833243,19.4503376 21.0331714,16.2579801 C19.4823975,19.4572251 17.3590528,23.7929996 16.3060108,25.7453413 C15.2821404,27.5255934 14.4390384,27.2927605 13.7680196,25.7916629 C11.4382766,20.2948651 6.6544339,10.6432787 4.40278277,5.2347009 C3.98628635,4.23830075 3.67247597,3.59910908 3.37601724,3.34602946 C3.07810621,3.09584494 2.45916129,2.94542289 1.51772067,2.89482975 C1.17209262,2.85723136 1,2.77335875 1,2.63742171 L1,1.88397306 L1.08391058,1.81021908 C2.61682585,1.80167615 10.0355556,1.81021908 10.0355556,1.81021908 L10.1194662,1.88397306 L10.1194662,2.60126612 C10.1194662,2.79938621 9.99364776,2.89482975 9.74635835,2.89482975 L8.81215075,2.93384247 C8.01098508,2.96710295 7.6103975,3.20715935 7.6103975,3.65112604 C7.6103975,3.85793144 7.6942796,4.19488367 7.88082876,4.64607389 C9.67404718,9.01633423 15.8678913,22.0764746 15.8678913,22.0764746 L16.094934,22.1358006 L20.0874031,14.1722255 C19.5993106,13.0939137 19.2880637,12.4033505 19.2880637,12.4033505 L16.5432765,7.00921978 L16.5432386,7.00908689 C16.5432386,7.00908689 16.0125042,5.93026643 15.8317357,5.57162465 C14.625654,3.18258418 14.6516815,3.05532297 13.4325861,2.89335847 C13.091296,2.84855553 12.9148654,2.80517642 12.9148654,2.63594094 L12.9148654,1.87960668 L13.017542,1.8058527 C15.2200238,1.80300505 20.1210091,1.80300505 20.1210091,1.80300505 L20.3090105,1.86517861 L20.3090105,2.61861777 C20.3090105,2.79071039 20.1860872,2.87892091 19.9359027,2.87892091 L19.4210771,2.95267489 C18.1195424,3.05390864 18.3321286,3.58609534 19.1969201,5.30845488 L21.8301696,10.696018 Z M49.3232323,11.7676768 C49.3232323,11.7676768 50.3737374,9.66666667 52.4747475,9.66666667 C55.1010101,9.66666667 56.6767677,11.7676768 56.6767677,13.8686869 C56.6767677,18.0707071 51.4242424,19.1212121 49.3232323,22.2727273 C47.2222222,19.1212121 41.969697,18.0707071 41.969697,13.8686869 C41.969697,11.7676768 43.5454545,9.66666667 46.1717172,9.66666667 C48.2727273,9.66666667 49.3232323,11.7676768 49.3232323,11.7676768 Z M62.4545455,26.9046667 L62.4545455,25.0129697 L64.9253333,24.7427273 L65.4658182,24.0478182 L65.4658182,3.58660606 L65.0025455,3.08472727 L62.4545455,2.85309091 L62.4545455,1 L72.5693333,1 L72.5693333,2.0809697 L78.5918788,19.8011515 L84.5758182,2.11957576 L84.5758182,1 L97.9579394,1 L97.9579394,2.85309091 L95.3327273,3.08472727 L94.9080606,3.62521212 L94.9080606,24.2022424 L95.3327273,24.8199394 L97.9579394,25.0129697 L97.9579394,26.9046667 L84.1125455,26.9046667 L84.1125455,25.0129697 L86.5061212,24.8199394 L86.8921818,24.2022424 L86.8921818,3.47078788 L78.8621212,26.9046667 L76.0824848,26.9046667 L68.2454545,3.66381818 L68.2454545,24.0478182 L68.8245455,24.7427273 L71.2181212,25.0129697 L71.2181212,26.9046667 L62.4545455,26.9046667 Z M92.3939394,3.36363636 L92.3939394,24.6968803 L93.1818182,24.6968803 L93.1818182,3.36363636 L92.3939394,3.36363636 Z M89.2424242,3.36363636 L89.2424242,24.6968803 L90.030303,24.6968803 L90.030303,3.36363636 L89.2424242,3.36363636 Z" id="Combined-Shape"></path>
        </g>
    </g>
</svg>
